X: 6333
T: Cartmel Fell
R: hornpipe
M: 4/4
K: Dmajor
|:a3f ge f2|dfec dcBA|c2 Bc d2 AB|e2 AB f2 e2|
a3f ge f2|dfec dcBA|c2 Bc d2 AB|e2 dc d4:|
|:f2 df edef|d2 df edBd|AB d2 d2 AB|e2 AB f2 e2|
f2 df edef|d2 df edBd|AB d2 d2 AB|e2 dc d4:|

